ckanext/scheming_dcat/public/images/icons/spatial_uri/autonomia/pais-vasco.svg

<svg xmlns="http://www.w3.org/2000/svg" id="flag-icons-es-pv" viewBox="0 0 512 512">
  <path fill="#d52b1e" d="m0 0h512v512h-512z" />
  <path fill="#009b48" d="m0 0h42.5l106.7 106.7c58.7 58.7 106.8 106.7 106.8 106.7 0 0 48.1-48 213.5-213.4h42.5v42.5l-106.7 106.7c-58.7 58.7-106.7 106.8-106.7 106.8 0 0 48 48.1 213.4 213.5v42.5h-42.5l-106.7-106.7c-58.7-58.7-106.8-106.7-106.8-106.7 0 0-48.1 48-213.5 213.4h-42.5v-42.5l106.7-106.7c58.7-58.7 106.7-106.8 106.7-106.8 0 0-48-48.1-213.4-213.5v-21.2z" />
  <path fill="#fff" d="m221.9 0h68.2v221.9h221.9v68.2h-221.9v221.9h-68.2v-221.9h-221.9v-68.2h221.9v-111z" />
</svg>

<svg xmlns="http://www.w3.org/2000/svg" viewBox="0 0 512 512"><path fill="#d52b1e" d="M0 0h512v512H0z"/><path fill="#009b48" d="M0 0h42.5l106.7 106.7C207.9 165.4 256 213.4 256 213.4s48.1-48 213.5-213.4H512v42.5L405.3 149.2C346.6 207.9 298.6 256 298.6 256s48 48.1 213.4 213.5V512h-42.5L362.8 405.3C304.1 346.6 256 298.6 256 298.6s-48.1 48-213.5 213.4H0v-42.5l106.7-106.7C165.4 304.1 213.4 256 213.4 256S165.4 207.9 0 42.5V21.3z"/><path fill="#fff" d="M221.9 0h68.2v221.9H512v68.2H290.1V512h-68.2V290.1H0v-68.2h221.9v-111z"/></svg>
